X:1
T:The Morning After
M:2/4
L:1/16
C: Paul Gitlitz 2006
R:Polka
K:Gm
D2|"Gm"G3B AGF2|G3B AGF2|G3B "Dm"AGF2|"Gm"G6D2|!
"F"A,2FA, A,GA,A,|FA,A,G  A,A,F2|"Gm"G3B "Dm"AGF2|"Gm"G6D2|!
|"Gm"G3B AGF2|G3B AGF2|"Gm"dDcD "F"BDAD|"Gm"G6D2|!
"F"A,2FA, A,GA,A,|FA,A,G A,A,FA,|"Gm"G3B "Dm"AGF2|"Gm"G6D2||!
|"Cm"E2cE EdEE|eEEd EEc2| "Gm"D2BD DcDD|dDDc DDBD|!
"D7"^F2AF FBFF|c^FFB FFAF|"Gm"G^FGA BABc| d2B2 G2D2|!
"Cm"E2cE EdEE|eEEd EEc2| "Gm"D2BD DcDD|dDDc DDBD|!
"D7"D2AD DBDD|cDDB DDAG|"Gm"G3B "F"AGF2|"Gm"G8|]
% Written by ABC2Win  2.2.124 BETA on 2/10/2007
